lib/preview/nrk-logo-preview-nrk-2-on-light.svg

<svg width="47" height="24" viewBox="0 0 47 24" fill="none" xmlns="http://www.w3.org/2000/svg">
<path d="M-3.05176e-05 17.9972V5.99828H3.93716V17.9972H-3.05176e-05ZM9.29378 7.90797L11.558 17.9972H7.24914L4.54546 5.99828H6.96215C7.51632 5.99109 8.05403 6.18644 8.47447 6.54758C8.89559 6.89357 9.18492 7.37389 9.29378 7.90797ZM12.1495 17.9972V5.99828H16.0867V17.9972H12.1495ZM19.0604 10.5613C18.6362 10.5654 18.2187 10.4544 17.8525 10.2402C17.4912 10.0313 17.1911 9.73115 16.9822 9.36979C16.7677 9.00352 16.6567 8.58595 16.6609 8.16151C16.6561 7.73965 16.7672 7.32457 16.9822 6.96162C17.1933 6.60418 17.4931 6.30729 17.8525 6.09971C18.2188 5.88569 18.6362 5.77471 19.0604 5.77858C19.4822 5.77403 19.8971 5.88512 20.2602 6.09971C20.616 6.30911 20.9126 6.60575 21.122 6.96162C21.3368 7.32467 21.4479 7.73969 21.4433 8.16151C21.4472 8.58592 21.3362 9.00342 21.122 9.36979C20.9148 9.72957 20.6179 10.0295 20.2602 10.2402C19.8971 10.4552 19.4819 10.5663 19.0599 10.5613H19.0604ZM22.0516 17.9972V5.99828H25.9891V17.9972H22.0516ZM30.9737 12.5554C30.9848 12.5671 31.0692 12.7051 31.2271 12.9695C31.385 13.2339 31.5906 13.5719 31.8439 13.9835C32.0974 14.3949 32.3649 14.8315 32.6463 15.2932C32.9277 15.7549 33.1926 16.1916 33.4408 16.603C33.6881 17.0144 33.9697 17.4791 34.2857 17.9972H29.9598C29.6893 17.5578 29.4441 17.1607 29.2244 16.8058C29.0048 16.4509 28.7713 16.0678 28.5238 15.6565C28.2758 15.2457 28.0306 14.8457 27.7882 14.4567C27.5458 14.0676 27.3375 13.7268 27.1632 13.4343C26.9882 13.1415 26.867 12.9443 26.7996 12.8427C26.6325 12.5906 26.5336 12.2995 26.5126 11.9977C26.5294 11.7081 26.6226 11.4282 26.7827 11.1863C26.8503 11.0736 26.9743 10.8736 27.1545 10.5863C27.3347 10.299 27.546 9.95825 27.7882 9.56392C28.0304 9.16959 28.2756 8.7668 28.5238 8.35557C28.772 7.94434 29.0055 7.55843 29.2244 7.1979C29.4445 6.83774 29.6896 6.43778 29.9598 5.99801H34.2857L30.9396 11.4567C30.8361 11.6188 30.7777 11.8055 30.7706 11.9977C30.7817 12.1995 30.8522 12.3935 30.9731 12.5554H30.9737Z" fill="#0A2343"/>
<path d="M40.2627 16.5442C40.5302 16.3147 40.8053 16.0762 41.0959 15.8177C41.5014 15.4573 41.9097 15.0658 42.3209 14.6434C42.732 14.221 43.1234 13.7817 43.4952 13.3256C43.8562 12.8841 44.1864 12.4184 44.4836 11.9316C44.761 11.4792 44.9876 10.9976 45.1594 10.4955C45.319 10.0334 45.4018 9.54824 45.4044 9.05935C45.4125 8.60278 45.3202 8.15 45.134 7.73302C44.9499 7.3392 44.6784 6.99252 44.3402 6.71928C43.9532 6.41273 43.5076 6.18849 43.0308 6.06033C42.4447 5.90013 41.8389 5.82334 41.2314 5.83224C40.8377 5.83119 40.4448 5.86511 40.0571 5.93361C39.6883 5.9988 39.3262 6.09777 38.9755 6.22928C38.6412 6.35458 38.3166 6.50423 38.0043 6.67703L38.2237 8.14696C38.4913 7.96759 38.7775 7.81749 39.0772 7.69923C39.4027 7.56857 39.7391 7.4668 40.0825 7.3951C40.4324 7.32178 40.7891 7.28497 41.1466 7.28527C41.5213 7.27765 41.8948 7.32897 42.2536 7.43735C42.5392 7.52478 42.8018 7.67486 43.0221 7.87664C43.2206 8.06174 43.3738 8.29012 43.4698 8.54402C43.5682 8.81176 43.6169 9.09516 43.6137 9.38036C43.6079 9.85908 43.5104 10.3322 43.3265 10.7743C43.1127 11.2934 42.8406 11.7865 42.5155 12.2442C42.1368 12.7819 41.7249 13.2954 41.2821 13.7817C40.809 14.3055 40.2937 14.8293 39.7361 15.3531C39.1785 15.8768 38.6013 16.409 38.0043 16.9497L38.2237 17.9973H45.5398L45.7426 16.5442H40.2627Z" fill="#AB0058"/>
</svg>

<svg xmlns="http://www.w3.org/2000/svg" viewBox="0 0 47 24"><path fill="#0A2343" d="M0 17.997V5.998h3.937v12H0ZM9.294 7.908l2.264 10.09H7.249l-2.704-12h2.417a2.276 2.276 0 0 1 1.512.55c.422.346.71.826.82 1.36Zm2.855 10.09v-12h3.938v12h-3.938Zm6.911-7.437a2.383 2.383 0 0 1-2.4-2.4 2.303 2.303 0 0 1 .322-1.2A2.412 2.412 0 0 1 20.26 6.1c.356.21.653.506.862.862.215.363.326.778.321 1.2a2.4 2.4 0 0 1-1.183 2.079 2.302 2.302 0 0 1-1.2.32Zm2.992 7.436V5.998h3.937v12h-3.937Zm8.922-5.442c.01.012.095.15.253.415.158.264.364.602.617 1.013a315.936 315.936 0 0 1 1.597 2.62c.247.411.529.876.845 1.394H29.96c-.27-.44-.516-.836-.736-1.191-.22-.355-.453-.738-.7-1.15-.248-.41-.493-.81-.736-1.2-.242-.388-.45-.73-.625-1.022-.175-.292-.296-.49-.363-.591a1.75 1.75 0 0 1-.287-.845c.016-.29.11-.57.27-.812.067-.112.191-.312.371-.6a182.106 182.106 0 0 0 1.37-2.23l.7-1.158.736-1.2h4.326l-3.346 5.459a1.08 1.08 0 0 0-.17.54c.012.203.082.396.203.558Z"/><path fill="#AB0058" d="M40.263 16.544c.267-.23.542-.468.833-.726.405-.36.814-.752 1.225-1.175.411-.422.802-.861 1.174-1.317.361-.442.691-.908.989-1.394.277-.453.504-.934.675-1.437.16-.462.243-.947.245-1.436a3.117 3.117 0 0 0-.27-1.326 2.86 2.86 0 0 0-.794-1.014 3.624 3.624 0 0 0-1.31-.659 6.466 6.466 0 0 0-1.799-.228 6.647 6.647 0 0 0-1.174.102 6.11 6.11 0 0 0-1.082.295 7.293 7.293 0 0 0-.97.448l.219 1.47c.267-.18.554-.33.853-.448a5.98 5.98 0 0 1 1.006-.304c.35-.073.706-.11 1.064-.11.374-.007.748.044 1.107.152.285.088.548.238.768.44.199.185.352.413.448.667.098.268.147.551.144.836a3.747 3.747 0 0 1-.287 1.394 7.414 7.414 0 0 1-.811 1.47c-.38.538-.791 1.051-1.234 1.538a26.892 26.892 0 0 1-1.546 1.571c-.557.524-1.135 1.056-1.732 1.597l.22 1.047h7.316l.203-1.453h-5.48Z"/></svg>
